X:217
T:Royal Irish Quadrilles No. 2. Le4.217, The
T:Brighton Camp
M:2/4
L:1/8
Q:2/4=50
B:L.Leadley MS#4 c1850
Z:Village Music Project 2016 Steve Mansfield
K:G
g | ed/c/ BA | BGEF | GG G/A/B/c/ | d2 Bg |
e>d c/B/A/G/ | AG EG | FA DE/F/ | Gz [Gdg] |
|: d/c/ | B/G/B/d/ e/d/e/f/ | g/f/g/d/ B/G/E/G/ | \
B/G/B/d/ e/d/e/f/ | g/f/g/a/ b/a/g/f/ |
e/f/e/d/ c/B/A/G/ | A/B/A/G/ E/c/e/g/ | \
d (3b/a/g/ (3f/e/d/ (3c/B/A/ | G (3G/B/d/ g :|]

